assets/icons/24px/outline/take-off-24px.svg

<svg width="24" height="24" viewBox="0 0 24 24" fill="none" xmlns="http://www.w3.org/2000/svg">
<path d="M3 21L20.5 21" stroke="white" stroke-width="2" stroke-linecap="round"/>
<path d="M20.1115 8.79176L8.17727 13.1897C7.44473 13.4596 7.07846 13.5946 6.72076 13.5943C6.36998 13.594 6.02547 13.5014 5.72177 13.3259C5.41206 13.1469 5.15844 12.8414 4.6512 12.2303C3.50807 10.8531 2.9365 10.1645 2.95399 9.77812C2.9723 9.37365 3.23269 9.02014 3.61354 8.88271C3.97731 8.75144 4.78687 9.08584 6.40599 9.75464L6.406 9.75464C6.61484 9.8409 6.71925 9.88403 6.82691 9.90295C6.94143 9.92308 7.05857 9.92308 7.17309 9.90295C7.28075 9.88403 7.38516 9.8409 7.594 9.75464L8.36133 9.43769L8.36134 9.43768C8.90703 9.21228 9.17987 9.09958 9.33328 8.92601C9.54519 8.68625 9.62957 8.35955 9.56026 8.04716C9.51008 7.82101 9.32593 7.59028 8.95764 7.12883C8.08938 6.04094 7.65525 5.49699 7.64349 5.16693C7.62723 4.71041 7.9224 4.3009 8.36064 4.17198C8.67749 4.07877 9.33079 4.31864 10.6374 4.79839L14.0798 6.06233C14.6444 6.26964 14.9268 6.37329 15.2226 6.39038C15.5184 6.40748 15.8108 6.33703 16.3955 6.19613L19.1238 5.53874C20.0048 5.32647 20.8976 5.84135 21.1552 6.71013C21.4103 7.57064 20.9536 8.48141 20.1115 8.79176Z" stroke="white" stroke-width="2"/>
</svg>

<svg width="24" height="24" fill="none" xmlns="http://www.w3.org/2000/svg"><path d="M3 21h17.5" stroke="#fff" stroke-width="2" stroke-linecap="round"/><path d="M20.111 8.792L8.178 13.19c-.732.27-1.099.405-1.456.404a2 2 0 0 1-1-.268c-.309-.18-.563-.485-1.07-1.096-1.143-1.377-1.714-2.066-1.697-2.452a1 1 0 0 1 .66-.895c.363-.132 1.173.203 2.792.872.209.086.313.129.42.148a1 1 0 0 0 .347 0c.108-.019.212-.062.421-.148l.767-.317c.546-.226.819-.338.972-.512a1 1 0 0 0 .227-.879c-.05-.226-.234-.457-.602-.918-.869-1.088-1.303-1.632-1.315-1.962a1 1 0 0 1 .718-.995c.316-.093.97.147 2.276.626l3.443 1.264c.564.208.847.311 1.143.328.295.017.588-.053 1.172-.194l2.729-.657a1.703 1.703 0 0 1 .988 3.253z" stroke="#fff" stroke-width="2"/></svg>
